assets/img/braze_icons/speaker-02.svg

<svg fill="none" height="24" viewBox="0 0 24 24" width="24" xmlns="http://www.w3.org/2000/svg"><g clip-rule="evenodd" fill="#801ed7" fill-rule="evenodd"><path d="m8 12c0-2.20914 1.79086-4 4-4 2.2091 0 4 1.79086 4 4 0 2.2091-1.7909 4-4 4-2.20914 0-4-1.7909-4-4zm4-1.5c-.8284 0-1.5.6716-1.5 1.5s.6716 1.5 1.5 1.5 1.5-.6716 1.5-1.5-.6716-1.5-1.5-1.5z"/><path d="m17.8385 2h-11.67704c-.52712-.00002-.98193-.00003-1.35648.03057-.39535.0323-.78857.10362-1.16695.29641-.56448.28762-1.02343.74657-1.31105 1.31105-.19279.37838-.26411.7716-.29641 1.16695-.0306.37455-.03059.82929-.03057 1.3564v11.67712c-.00002.5272-.00003.982.03057 1.3565.0323.3954.10362.7886.29641 1.167.28762.5645.74657 1.0234 1.31105 1.311.37838.1928.7716.2641 1.16695.2964.37456.0306.82932.0306 1.35646.0306h11.67716c.5271 0 .9819 0 1.3564-.0306.3954-.0323.7886-.1036 1.167-.2964.5645-.2876 1.0234-.7465 1.311-1.311.1928-.3784.2641-.7716.2964-1.167.0306-.3745.0306-.8293.0306-1.3564v-11.67716c0-.52714 0-.9819-.0306-1.35646-.0323-.39535-.1036-.78857-.2964-1.16695-.2876-.56448-.7465-1.02343-1.311-1.31105-.3784-.19279-.7716-.26411-1.167-.29641-.3745-.0306-.8293-.03059-1.3565-.03057zm-5.8385 4c-3.31371 0-6 2.68629-6 6 0 3.3137 2.68629 6 6 6 3.3137 0 6-2.6863 6-6 0-3.31371-2.6863-6-6-6zm-7.25 0c0-.69036.55964-1.25 1.25-1.25s1.25.55964 1.25 1.25-.55964 1.25-1.25 1.25-1.25-.55964-1.25-1.25zm1.25 10.75c-.69036 0-1.25.5596-1.25 1.25s.55964 1.25 1.25 1.25 1.25-.5596 1.25-1.25-.55964-1.25-1.25-1.25zm10.75-10.75c0-.69036.5596-1.25 1.25-1.25s1.25.55964 1.25 1.25-.5596 1.25-1.25 1.25-1.25-.55964-1.25-1.25zm1.25 10.75c-.6904 0-1.25.5596-1.25 1.25s.5596 1.25 1.25 1.25 1.25-.5596 1.25-1.25-.5596-1.25-1.25-1.25z"/></g></svg>

<svg width="24" height="24" viewBox="0 0 24 24" fill="none" xmlns="http://www.w3.org/2000/svg">
<path fill-rule="evenodd" clip-rule="evenodd" d="M8 12C8 9.79086 9.79086 8 12 8C14.2091 8 16 9.79086 16 12C16 14.2091 14.2091 16 12 16C9.79086 16 8 14.2091 8 12ZM12 10.5C11.1716 10.5 10.5 11.1716 10.5 12C10.5 12.8284 11.1716 13.5 12 13.5C12.8284 13.5 13.5 12.8284 13.5 12C13.5 11.1716 12.8284 10.5 12 10.5Z" fill="#801ED7"/>
<path fill-rule="evenodd" clip-rule="evenodd" d="M17.8385 2H6.16146C5.63434 1.99998 5.17953 1.99997 4.80498 2.03057C4.40963 2.06287 4.01641 2.13419 3.63803 2.32698C3.07355 2.6146 2.6146 3.07355 2.32698 3.63803C2.13419 4.01641 2.06287 4.40963 2.03057 4.80498C1.99997 5.17953 1.99998 5.63427 2 6.16138V17.8385C1.99998 18.3657 1.99997 18.8205 2.03057 19.195C2.06287 19.5904 2.13419 19.9836 2.32698 20.362C2.6146 20.9265 3.07355 21.3854 3.63803 21.673C4.01641 21.8658 4.40963 21.9371 4.80498 21.9694C5.17954 22 5.6343 22 6.16144 22H17.8386C18.3657 22 18.8205 22 19.195 21.9694C19.5904 21.9371 19.9836 21.8658 20.362 21.673C20.9265 21.3854 21.3854 20.9265 21.673 20.362C21.8658 19.9836 21.9371 19.5904 21.9694 19.195C22 18.8205 22 18.3657 22 17.8386V6.16144C22 5.6343 22 5.17954 21.9694 4.80498C21.9371 4.40963 21.8658 4.01641 21.673 3.63803C21.3854 3.07355 20.9265 2.6146 20.362 2.32698C19.9836 2.13419 19.5904 2.06287 19.195 2.03057C18.8205 1.99997 18.3657 1.99998 17.8385 2ZM12 6C8.68629 6 6 8.68629 6 12C6 15.3137 8.68629 18 12 18C15.3137 18 18 15.3137 18 12C18 8.68629 15.3137 6 12 6ZM4.75 6C4.75 5.30964 5.30964 4.75 6 4.75C6.69036 4.75 7.25 5.30964 7.25 6C7.25 6.69036 6.69036 7.25 6 7.25C5.30964 7.25 4.75 6.69036 4.75 6ZM6 16.75C5.30964 16.75 4.75 17.3096 4.75 18C4.75 18.6904 5.30964 19.25 6 19.25C6.69036 19.25 7.25 18.6904 7.25 18C7.25 17.3096 6.69036 16.75 6 16.75ZM16.75 6C16.75 5.30964 17.3096 4.75 18 4.75C18.6904 4.75 19.25 5.30964 19.25 6C19.25 6.69036 18.6904 7.25 18 7.25C17.3096 7.25 16.75 6.69036 16.75 6ZM18 16.75C17.3096 16.75 16.75 17.3096 16.75 18C16.75 18.6904 17.3096 19.25 18 19.25C18.6904 19.25 19.25 18.6904 19.25 18C19.25 17.3096 18.6904 16.75 18 16.75Z" fill="#801ED7"/>
</svg>
